src/assets/bold/lm-pencil-ruler-bold.svg

<svg width="24" height="24" viewBox="0 0 24 24" fill="none" xmlns="http://www.w3.org/2000/svg" fill="currentColor">
<path d="M6.89508 3.20277C7.16544 2.93241 7.60379 2.93241 7.87415 3.20277L12 7.32862L15.2028 4.12585C15.8222 3.50638 16.6624 3.15837 17.5385 3.15837C18.4145 3.15837 19.2547 3.50638 19.8742 4.12585C20.4936 4.74531 20.8416 5.58548 20.8416 6.46154C20.8416 7.33759 20.4936 8.17776 19.8742 8.79722L18.4907 10.1807L18.4895 10.1818L18.4884 10.183L16.6714 12L20.7972 16.1258C21.0676 16.3962 21.0676 16.8346 20.7972 17.1049L17.1049 20.7972C16.8346 21.0676 16.3962 21.0676 16.1258 20.7972L12 16.6714L7.87415 20.7972C7.74432 20.9271 7.56823 21 7.38462 21H3.69231C3.30996 21 3 20.69 3 20.3077V16.6154C3 16.4318 3.07294 16.2557 3.20277 16.1258L7.32862 12L3.20277 7.87415C2.93241 7.60379 2.93241 7.16544 3.20277 6.89508L6.89508 3.20277ZM6.97907 9.69231L8.30769 11.0209L11.0209 8.30769L7.38462 4.67138L4.67138 7.38462L6 8.71324L6.89508 7.81816C7.16544 7.54779 7.60379 7.54779 7.87415 7.81816C8.14451 8.08852 8.14451 8.52686 7.87415 8.79723L6.97907 9.69231ZM8.79842 12.4883L8.79723 12.4895L8.79604 12.4907L4.38462 16.9021V19.6154H7.09785L17.0209 9.69231L14.3077 6.97907L12.4907 8.79602L12.4895 8.79723L12.4883 8.79843L8.79842 12.4883ZM15.2868 6L18 8.71323L18.8951 7.81815C19.2549 7.45836 19.457 6.97037 19.457 6.46154C19.457 5.9527 19.2549 5.46471 18.8951 5.10492C18.5353 4.74512 18.0473 4.54299 17.5385 4.54299C17.0296 4.54299 16.5416 4.74512 16.1818 5.10492L15.2868 6ZM15.6923 12.9791L12.9791 15.6923L14.3077 17.0209L15.2028 16.1258C15.4731 15.8555 15.9115 15.8555 16.1818 16.1258C16.4522 16.3962 16.4522 16.8346 16.1818 17.1049L15.2868 18L16.6154 19.3286L19.3286 16.6154L15.6923 12.9791Z" fill="black"/>
</svg>

<svg xmlns="http://www.w3.org/2000/svg" width="24" height="24" fill="currentColor" viewBox="0 0 24 24">
  <path d="M6.895 3.203c.27-.27.709-.27.98 0L12 7.329l3.203-3.203a3.303 3.303 0 1 1 4.671 4.671l-1.383 1.384h-.002v.002L16.67 12l4.126 4.126c.27.27.27.709 0 .979l-3.692 3.692a.692.692 0 0 1-.98 0L12 16.671l-4.126 4.126a.692.692 0 0 1-.49.203H3.693A.692.692 0 0 1 3 20.308v-3.693c0-.183.073-.36.203-.49L7.329 12 3.203 7.874a.692.692 0 0 1 0-.979l3.692-3.692Zm.084 6.49 1.329 1.328 2.713-2.713L7.385 4.67 4.67 7.385 6 8.713l.895-.895a.692.692 0 1 1 .98.98l-.896.894Zm1.82 2.795-.002.002h-.001l-4.411 4.412v2.713h2.713l9.923-9.923-2.713-2.713-1.817 1.817-.002.001v.001l-3.69 3.69ZM15.286 6 18 8.713l.895-.895a1.918 1.918 0 1 0-2.713-2.713L15.287 6Zm.405 6.98-2.713 2.712 1.329 1.329.895-.895a.692.692 0 0 1 .979.979l-.895.895 1.328 1.329 2.714-2.714-3.637-3.636Z"/>
</svg>
